!!!COM: Bach, Johann Sebastian
!!!OPR: Joh. Seb. Bachs vierstimmige Choralgesänge
!!!XEN: Four-part Chorales
!!!OTL: Chorale 95. Ich dank' dir, lieber Herre
!!!SCT: BWV 348
!!!SCA: Thematisch-systematisches Verzeichnis der musikalischen Werke Johann Sebastian Bach: Bach-Werke-Verzeichnis (Schmieder)
!!!YOR: Bach Gesellschaft Edition xxxix
!!!ENC: Steven Rasmussen
!!!CDT: 1685/3//-1750/7/28/
!!!OCY: Deutschland
!!!YEC: Copyright (c) 1994, 2000 Center for Computer Assisted Research in the Humanities
!!!YEM: Rights to all derivative editions reserved
!!!YEN: United States of America
**kern	**silbe	**kern	**kern	**kern	**silbe
*I:[BASSO]	*I:[BASSO]	*I:[TENORE]	*I:[ALTO]	*I:[SOPRANO]	*I:[SOPRANO]
*clefF4	*	*clefGv2	*clefG2	*clefG2	*
*k[b-e-]	*	*k[b-e-]	*k[b-e-]	*k[b-e-]	*
*B-:	*	*B-:	*B-:	*B-:	*
*M4/4	*	*M4/4	*M4/4	*M4/4	*
8B-L	.	4d	4f	4b-	Ich
8AJ	.	.	.	.	.
=1	=1	=1	=1	=1	=1
4G	.	8dL	4g	4b-	dank'
.	.	8e-J	.	.	.
4D	.	4f	4a-	4b-	dir,
4E-	.	8e-L	4g	4b-	lie-
.	.	8dJ	.	.	.
4En	.	4c	4g	4cc	-ber
=2	=2	=2	=2	=2	=2
4F	.	4c	8g	4a-	Her-
.	.	.	4f	.	.
4C	.	4B-	.	4g	.
.	.	.	8en	.	.
4FF;	.	4A;	4f;	4f;	-re,
4AA	.	4c	4f	4cc	dass
=3	=3	=3	=3	=3	=3
4BB-	.	8B-L	4f	4dd	du
.	.	8AJ	.	.	.
4C	.	4G	4en	4cc	mich
4D	.	4F	4f	4b-	hast
4En	.	[4c	[4c	8aL	.
.	.	.	.	8gJ	.
=4	=4	=4	=4	=4	=4
4F	.	4c]	(8c]	4a	.
.	.	.	4f)	.	.
4C	.	4B-	.	4g	be-
.	.	.	8en	.	.
4FF;	.	4A;	4c;	4f;	-wahrt
4D	.	4B-	4f	4b-	in
=5	=5	=5	=5	=5	=5
4E-	.	8B-L	4g	4b-	die-
.	.	8cJ	.	.	.
4BB-	.	4d	4f	4b-	-ser
4E-	.	8e-L	4g	4b-	Nacht
.	.	8dJ	.	.	.
4En	.	4c	4g	4cc	Ge-
=6	=6	=6	=6	=6	=6
4F	.	4c	8g	4a-	-fäh-
.	.	.	4f	.	.
4C	.	4B-	.	4g	.
.	.	.	8en	.	.
4FF;	.	4A;	4f;	4f;	-re,
4AA	.	4c	4f	4cc	da-
=7	=7	=7	=7	=7	=7
4BB-	.	8B-L	4f	4dd	-rin
.	.	8AJ	.	.	.
4C	.	4G	4en	4cc	ich
4D	.	4F	4f	4b-	lag
4En	.	[4c	[4c	8aL	.
.	.	.	.	8gJ	.
=8	=8	=8	=8	=8	=8
4F	.	4c]	(8c]	4a	.
.	.	.	4f)	.	.
4C	.	4B-	.	4g	so
.	.	.	8en	.	.
4FF;	.	4A;	4c;	4f;	hart
4D	.	8dL	8b-L	4ff	mit
.	.	8cJ	8aJ	.	.
=9	=9	=9	=9	=9	=9
4G	.	8B-L	4g	4ee-	Fin-
.	.	8cJ	.	.	.
4B-	.	8dL	8fL	4dd	-ster-
.	.	8e-J	8gJ	.	.
4E-	.	4f	4a	4cc	-niss
4D	.	4f	8b-L	4b-	um-
.	.	.	8a-J	.	.
=10	=10	=10	=10	=10	=10
4E-	.	2B-	4g	8b-L	-fan-
.	.	.	.	8ccJ	.
4BB-	.	.	4f	4dd	.
4F;	.	4A;	4f;	4cc;	-gen,
4D	.	4Bn	4f	4dd	da-
=11	=11	=11	=11	=11	=11
4C	.	4.c	4e-	4ee-	-zu
8FL	.	.	8a-L	4dd	in
8GJ	.	8Bn	8gJ	.	.
4A-	.	4c	8gL	4cc	gro-
.	.	.	8fJ	.	.
4G	.	4d	4g	4bn	-sser
=12	=12	=12	=12	=12	=12
2.C;	.	2.e-;	2.g;	2.cc;	Not,
4E-	.	4A	4c	4f	da-
=13	=13	=13	=13	=13	=13
4D	.	4B-	4f	4b-	-raus
4C	.	4E-	8gL	4cc	ich
.	.	.	8aJ	.	.
4BB-	.	8FL	4b-	4dd	bin
.	.	8fJ	.	.	.
4C	.	4e-	8aL	4ee-	ent-
.	.	.	8gJ	.	.
=14	=14	=14	=14	=14	=14
4D	.	8e-L	4f	4ff	-gan-
.	.	8d	.	.	.
4E-	.	8c	4g	8ee-L	.
.	.	8B-J	.	8ddJ	.
4F;	.	4f;	4a;	4cc;	-gen,
4G	.	4B-	4b-	4ee-	halfst
=15	=15	=15	=15	=15	=15
4F	du	4B-	4a-	4dd	du
2E-	mir,	8B-L	4g	4cc	mir,
.	.	8cJ	.	.	.
.	.	4A	4.f	4ff	Her-
8DL	Her-	[4B-	.	8b-L	.
8E-J	.	.	8g	8ccJ	.
=16	=16	=16	=16	=16	=16
4F	.	4B-]	8fL	4dd	.
.	.	.	8e-J	.	.
4FF	-re	4A	8e-L	4cc	-re
.	.	.	8dJ	.	.
4BB-;	Gott.	4F;	4d;	4b-;	Gott!
==|!	==|!	==|!	==|!	==|!	==|!
*-	*-	*-	*-	*-	*-
!!!RWG: Key is interpreted using the Humdrum key tool.
!!!URL-pdf: https://s9.imslp.org/files/imglnks/usimg/7/7a/IMSLP04155-Bach_-_BGA_253-438.pdf#page=51 	Bach-Gesellschaft Ausgabe, Band 39 (pp.175-276) Leipzig: Breitkopf und Härtel, 1892. Plate B.W. XXXIX.
!!!END: 1994/06/27
!!!EMD: Converted from MuseData to Humdrum Dec 19, 2000, by Andreas Kornstaedt using muse2kern.
!!!EED: Craig Stuart Sapp
!!!EEV: 2024/03/31
!!!filter-keyboard: extract -i kern | satb2gs
!!!title: @{OTL} (@{SCT})
